X:1
T:Come This Way
T:Winfield Scott Weeden
T:Come This Way
T:Public Domain
T:Public Domain
C:Winfield Scott Weeden
Z:Public Domain
%%score ( 1 2 ) 3
L:1/8
M:3/4
K:Eb
V:1 treble 
V:2 treble 
V:3 bass 
V:1
 E[EG] | [GB]3 [GB] [^F=A][FA] | [GB]2 [EG]2 E[EG] | [GB]3 [EG] [EG][EF] | [DF]4 E[EG] | %5
w: 1.~As I|up- on life’s bil-|lows, Long- ing for|light of day; I|can al- most|
w: 2.~And me-|I hear my mo-|ther, Call- ing from|o- ther shore, With|a voice so|
w: 3.~Hark! I|the voice of Je-|sus, Waft- ed from|heav’n- ly land; I|can al- most|
w: 4.~Oh! the|the joy of meet-|ing Loved ones in|might- y throng; Join-|ing with them|
 [GB]3 [GB] [^F=A][FA] | [GB]2 [EG]2 [GB][_Gc] | [Fd]3 [Fd] [Fd][Ec] | [DB]4 ||"^Refrain" BB | %10
w: from Heav- en, Loved|ones sing- ing, “Come|this way.” * *|||
w: and ten- der, Far|a- bove the bil-|lows’ roar: Come this|way,|come this|
w: His glo- ry, And|the beckon- ing of|His hand. * *|||
w: their sing- ing, Of|the ev- er- last-|ing song. * *|||
 (AA A2) cB | (EE B,2) [EG][EG] | [FA][=EG] [FA]2 [DB]2 | [EG]4 BB | (GA G2) cB | (GE E2) E[EF] x | %16
w: ||||||
w: way, * * Here is|and * * joy, and|Come this way, come|this way, And|your * * sor- rows|shall * * cease. *|
w: ||||||
w: ||||||
 [EG][EB] [EG]2 [DF]2 | E4 |] %18
w: ||
w: ||
w: ||
w: ||
V:2
 E x | x6 | x4 E x | x6 | x4 E x | x6 | x6 | x6 | x4 || x2 | B4 x2 | G4 x2 | x6 | x6 | B4 x2 | %15
w: drift||the||hear|||||||||||
w: thinks||the||sweet||||||light,|peace;|||all|
w: hear||a||see|||||||||||
w: bliss,||that||in|||||||||||
 e6 E | x6 | E4 |] %18
w: |||
w: |||
w: |||
w: |||
V:3
 [E,G,][E,B,] | [E,E]3 [E,E] [E,C][E,C] | [E,B,]2 [E,B,]2 [E,G,][E,B,] | %3
w: ~ ~|~ ~ ~ ~|~ ~ ~ ~|
 [E,E]3 [E,B,] [F,=A,][F,A,] | [B,,A,]4 [E,G,][E,B,] | [E,E]3 [E,E] [E,C][E,C] | %6
w: ~ ~ ~ ~|~ ~ ~|~ ~ ~ ~|
 [E,B,]2 [E,B,]2 [E,E][E,B,] | [F,B,]3 [F,B,] [F,=A,][F,A,] | [B,,B,]4 || z2 | %10
w: ~ ~ ~ ~|~ ~ ~ ~|~||
 [B,,D][F,D] [B,D]2 z2 | [E,E][E,B,] [E,G,]2 [E,B,][E,B,] | [B,,B,][B,,B,] [B,,B,]2 [B,,B,]2 | %13
w: Come this way,|come this way, ~ ~|~ ~ ~ ~|
 [E,B,]4 z2 | [E,E][F,D] [G,E]2 z2 | [E,B,][E,G,] [_C,_G,]2 [C,G,][C,G,] x | %16
w: ~|Come this way,|come this way, * *|
 [B,,B,][B,,G,] [B,,B,]2 [B,,A,]2 | [E,G,]4 |] %18
w: ||

